X:1
T:We Shall Meet at the Beautiful Gate
T:We Shall Meet at the Beautiful Gate
T:William A. Stewart
T:Mrs. J. M. Hunter, 1903
T:Public Domain Courtesy of the Cyber Hymnal™
T:Public Domain Courtesy of the Cyber Hymnal™
C:William A. Stewart
Z:Public Domain
Z:Courtesy of the Cyber Hymnal™
%%score ( 1 2 ) ( 3 4 )
L:1/8
Q:1/4=103
M:6/8
K:Ab
V:1 treble 
V:2 treble 
V:3 bass 
V:4 bass 
V:1
 [CE] | [EA]2 [EA] [DF]2 [CE] | [EA]2 [EA] [Ac]2 [Ac] | [Ae]2 [Ae] [Ac]2 A | [GB]3- [GB]2 [Ac] | %5
w: 1.~Dear|mo- ther, safe on|that bright shore, For|me will watch and|wait; * I|
w: 2.~My|mind goes back to|o- ther days, When|she was with me|here; * I|
w: 3.~And|now when of- ten-|times I try Some|old and cher- ished|strain, * Their|
w: 4.~Then|comes the thought, we’ll|meet a- gain At|Hea- ven’s gate so|fair, * And|
w: 5.~Yes,|there ’twill be the|glad new song Which|Christ Him- self will|give, * Thro’|
w: 6.~There|ran- somed ones se-|cure- ly dwell, And|sing re- deem- ing|love, * Me-|
 [Ae]2 [Ae] [Ac]2 [GB] | [FA]2 [GB] [Ac]2 [Ae] | [Ac]2 A [Ac]2 [EB] | [EA]3- [EA]2 z || %9
w: love to pic- ture|o’er and o’er My|wel- come at the|gate. *|
w: sang for her sweet|hymns of praise And|heard her words of|cheer. *|
w: ten- der mem- ories|dim my eyes And|fill my heart with|pain. *|
w: I shall sing some|sweet re- frain With|mo- ther o- ver|there. *|
w: Him I’ll reach the|hap- py throng, Thro’|Him in glo- ry|live. *|
w: thinks I’ll hear the|cho- rus swell, “O|pre- cious home a-|bove.” *|
"^Refrain" [Ec]>[Ec][Ec] [Ae]2 [Af] | [Ae]2 A [Ac]3 | [Ac]>[Ac][Ac] [Ae]2 [Ac] | [GB]6 | %13
w: ||||
w: ||||
w: Beau- ti- ful gate of|pear- ly white,|Beau- ti- ful gate so|fair,|
w: ||||
w: ||||
w: ||||
 [Ac]>[Ac][Ac] [ce] [ce]2 | [EA]2 [EA] [Ac]2 [Ae] | [Ac]2 A [Ac]2 [GB] | (A3- A2) |] %17
w: ||||
w: ||||
w: Beau- ti- ful ci- ty,|God its light, I|know we’ll meet up|there. *|
w: ||||
w: ||||
w: ||||
V:2
 x | x6 | x6 | x5 A | x6 | x6 | x6 | x2 A x3 | x6 || x6 | x2 A x3 | x6 | x6 | x6 | x6 | x2 A x3 | %16
 A3- A2 |] %17
V:3
 A, | [A,C]2 [A,C] A,2 A, | [A,C]2 [A,C] [A,E]2 [A,E] | [A,C]2 [A,C] [A,E]2 [C,E] | %4
 [E,E]3- [E,E]2 [A,E] | [A,C]2 [A,C] [A,E]2 [E,D] | [F,C]2 [E,E] [A,E]2 [A,C] | %7
 A,2 [F,C] [E,E]2 [E,D] | [A,,A,C]3- [A,,A,C]2 z || A,>A,A, [A,C]2 [A,D] | [A,C]2 [A,C] [A,E]3 | %11
 [A,E]>[A,E][A,E] [A,C]2 [A,E] | [E,E]6 | [A,E]>[A,E][A,E] [A,E] [A,E]2 | %14
 [A,C]2 [A,C] [A,E]2 [A,C] | A,2 [F,C] [E,E]2 [E,D] | [A,C]3- [A,C]2 |] %17
V:4
 A, | x3 A,2 A, | x6 | x6 | x6 | x6 | x6 | A,2 x4 | x6 || A,>A,A, x3 | x6 | x6 | x6 | x6 | x6 | %15
 A,2 x4 | x5 |] %17

